packages/foundations/assets/icons/functional/images/devices/fax_machine_32.svg

<svg width="32" height="32" viewBox="0 0 32 32" fill="none" xmlns="http://www.w3.org/2000/svg">
<g clip-path="url(#clip0_185_707)">
<path fill-rule="evenodd" clip-rule="evenodd" d="M21.0235 2C21.3125 2 21.5525 2.111 21.7295 2.289L25.7115 6.303C25.9035 6.496 26.0005 6.752 26.0005 7.009L25.9995 13.001C27.6495 13.002 28.9995 14.352 28.9995 16.003V23.998C28.9995 25.649 27.6485 27 25.9975 27H11.8285V27.282C11.8285 27.556 11.7405 30 8.67849 30C5.17249 30 3.00049 26.129 3.00049 19.958C3.00049 12.162 5.87649 10.339 8.00049 10.051V4.248C8.00049 2.995 8.99649 2 10.2485 2H21.0235ZM8.67949 12C6.02649 12 4.99349 15.428 4.99349 19.958C4.99349 23.949 6.12049 27.963 8.67949 27.963C9.28949 27.963 9.82949 27.869 9.82949 27.282V24.747C9.82949 24.395 9.52449 24.113 9.14849 24.113H8.32649C7.36449 24.113 6.98849 22.892 6.98849 19.981C6.98849 17.423 7.34049 15.85 8.32649 15.85H9.14849C9.52449 15.85 9.82949 15.568 9.82949 15.216V12.681C9.82949 12.141 9.38349 12 8.67949 12ZM25.9975 15H11.8285V15.216C11.8285 16.668 10.6255 17.85 9.14749 17.85H9.12749C9.05849 18.23 8.98749 18.884 8.98749 19.981C8.98749 21.078 9.04549 21.731 9.10649 22.113H9.14749C10.6255 22.113 11.8285 23.295 11.8285 24.747V25H25.9995C26.5425 25 27.0015 24.541 26.9995 23.997V16.002C26.9995 15.459 26.5405 15 25.9975 15ZM18.0125 21C18.5535 21 19.0005 21.442 19.0005 22C19.0005 22.558 18.5535 23 18.0125 23H17.9895C17.4485 23 17.0015 22.558 17.0015 22C17.0015 21.442 17.4485 21 17.9895 21H18.0125ZM24.0125 21C24.5535 21 25.0005 21.442 25.0005 22C25.0005 22.558 24.5535 23 24.0125 23H23.9895C23.4485 23 23.0015 22.558 23.0015 22C23.0015 21.442 23.4485 21 23.9895 21H24.0125ZM21.0125 21C21.5535 21 22.0005 21.442 22.0005 22C22.0005 22.558 21.5535 23 21.0125 23H20.9895C20.4485 23 20.0015 22.558 20.0015 22C20.0015 21.442 20.4485 21 20.9895 21H21.0125ZM18.0125 18C18.5535 18 19.0005 18.442 19.0005 19C19.0005 19.558 18.5535 20 18.0125 20H17.9895C17.4485 20 17.0015 19.558 17.0015 19C17.0015 18.442 17.4485 18 17.9895 18H18.0125ZM24.0125 18C24.5535 18 25.0005 18.442 25.0005 19C25.0005 19.558 24.5535 20 24.0125 20H23.9895C23.4485 20 23.0015 19.558 23.0015 19C23.0015 18.442 23.4485 18 23.9895 18H24.0125ZM21.0125 18C21.5535 18 22.0005 18.442 22.0005 19C22.0005 19.558 21.5535 20 21.0125 20H20.9895C20.4485 20 20.0015 19.558 20.0015 19C20.0015 18.442 20.4485 18 20.9895 18H21.0125ZM19.0565 4H10.2395C10.1105 4 9.98249 4.096 9.98249 4.257V10.188C11.7615 10.756 11.8285 12.453 11.8285 12.681V13H24.0005V9.009H20.0515C19.5055 9.009 19.0565 8.56 19.0565 8.014V4ZM21.0005 4.409V7.01H23.5695L21.0005 4.409Z" fill="#1A1C1F"/>
</g>
<defs>
<clipPath id="clip0_185_707">
<rect width="32" height="32" fill="white"/>
</clipPath>
</defs>
</svg>

<svg xmlns="http://www.w3.org/2000/svg" width="32" height="32" fill="none"><g clip-path="url(#a)"><path fill="#1A1C1F" fill-rule="evenodd" d="M21.024 2c.288 0 .528.111.706.289l3.982 4.014a1 1 0 0 1 .288.706v5.992a3.01 3.01 0 0 1 3 3.002v7.995A3.01 3.01 0 0 1 25.997 27H11.83v.282c0 .274-.088 2.718-3.15 2.718C5.171 30 3 26.129 3 19.958c0-7.796 2.876-9.619 5-9.907V4.248C8 2.995 8.996 2 10.25 2zM8.678 12c-2.653 0-3.686 3.428-3.686 7.958 0 3.991 1.127 8.005 3.686 8.005.61 0 1.15-.094 1.15-.681v-2.535c0-.352-.305-.634-.68-.634h-.823c-.962 0-1.338-1.221-1.338-4.132 0-2.558.352-4.131 1.338-4.131h.822c.376 0 .681-.282.681-.634v-2.535c0-.54-.446-.681-1.15-.681m17.319 3h-14.17v.216c0 1.452-1.202 2.634-2.68 2.634h-.02c-.07.38-.14 1.034-.14 2.131s.057 1.75.118 2.132h.041c1.479 0 2.682 1.182 2.682 2.634V25h14.17c.544 0 1.003-.459 1-1.003v-7.995c0-.543-.458-1.002-1.001-1.002m-7.986 6c.541 0 .988.442.988 1s-.447 1-.988 1h-.023a.993.993 0 0 1-.988-1c0-.558.447-1 .988-1zm6 0c.541 0 .988.442.988 1s-.447 1-.988 1h-.023a.993.993 0 0 1-.988-1c0-.558.447-1 .988-1zm-3 0c.541 0 .988.442.988 1s-.447 1-.988 1h-.023a.993.993 0 0 1-.988-1c0-.558.447-1 .988-1zm-3-3c.541 0 .988.442.988 1s-.447 1-.988 1h-.023a.993.993 0 0 1-.988-1c0-.558.447-1 .988-1zm6 0c.541 0 .988.442.988 1s-.447 1-.988 1h-.023a.993.993 0 0 1-.988-1c0-.558.447-1 .988-1zm-3 0c.541 0 .988.442.988 1s-.447 1-.988 1h-.023a.993.993 0 0 1-.988-1c0-.558.447-1 .988-1zM19.057 4H10.24a.253.253 0 0 0-.257.257v5.931c1.78.568 1.847 2.265 1.847 2.493V13H24V9.009h-3.948a1 1 0 0 1-.995-.995zM21 4.409V7.01h2.57z" clip-rule="evenodd"/></g><defs><clipPath id="a"><path fill="#fff" d="M0 0h32v32H0z"/></clipPath></defs></svg>
